X:1
T:Sing and Pray!
T:Sing and Pray!
T:Philip Paul Bliss (1838-1876)
T:Mary Sparkes Wheeler, 19th Century
T:Public Domain Courtesy of the Cyber Hymnal™
T:Public Domain Courtesy of the Cyber Hymnal™
C:Philip Paul Bliss (1838-1876)
Z:Public Domain
Z:Courtesy of the Cyber Hymnal™
%%score ( 1 2 ) ( 3 4 )
L:1/8
Q:1/4=110
M:3/4
K:C
V:1 treble 
V:2 treble 
V:3 bass 
V:4 bass 
V:1
 G2 | G3 [EA] [FB]2 | [Ec]4 [Ec]>[Ec] | [Ec]2 E2 [D^F]2 | [DG]4 G>G | G2 [^FA]2 [=FB]2 | %6
w: 1.~E-|ter- ni- ty|dawns on my|vi- sion to-|day, Ga- ther|round me my|
w: 2.~“E-|ter- ni- ty|dawns!” Oh, the|glo- ries that|rise, How they|burst on my|
w: 3.~“E-|ter- ni- ty|dawns!” There will|be no more|night, I am|near- ing the|
w: 4.~“E-|ter- ni- ty|dawns!” Earth re-|cedes from my|view; Weep- ing|friends, now fare-|
w: 5.~“E-|ter- ni- ty|dawns!” ’Tis a|source of con-|tent, That in|preach- ing sal-|
 [Ec]4 [Ec]>[Ec] | [Fd]2 [Ec]2 [DB]2 | [Ec]4 G2 | G3 [EA] [FB]2 | [Ec]4 [Ec]>[Ec] | %11
w: loved ones to|sing and to|pray; The|sha- dows are|past, and the|
w: soul in its|bliss- ful sur-|prise; With|rap- ture the|gleam of the|
w: gates of the|ci- ty of|light; The|sha- dows of|time are now|
w: well, I must|bid you a-|dieu; I’m|rest- ing in|Je- sus, His|
w: va- tion my|life has been|spent; ’Tis|“Je- sus my|all,” and the|
 [Ec]2 E2 [D^F]2 | [DG]4 G>G | G2 [^FA]2 [=FB]2 | [Ec]4 [Ec]>[Ec] | [Fd]2 [Ec]2 [DB]2 | [Ec]4 || %17
w: veil is with-|drawn, Bright- ly|now does the|morn of e-|ter- ni- ty|dawn.|
w: ci- ty I|see, Where the|crown and the|man- sion are|wait- ing for|me.|
w: pass- ing a-|way, Tar- ry|not, O my|Sav- ior, come|quick- ly, I|pray.|
w: mer- its I|plead, Fear ye|not, “for my|God shall sup-|ply all your|need.”|
w: Sav- ior of|men, May His|grace be up-|on you for-|ev- er. A-|men.|
"^Refrain" G>G | [Ec]2 c2 [Gc]>[Ec] | [Gd]2 [Gd]2 [Gd]>[Gd] | [Ge]2 [Gd]2 [^Fc]2 | %21
w: ||||
w: ||||
w: Hal- le-|lu- jah! Hal- le-|lu- jah! Hal- le-|lu- jah, we|
w: ||||
w: ||||
 [Gd]4 [Ge]>[Fd] | [Ec]2 [Ec]2 [EA]2 | [Ac]4 [GB]>[FA] | [EG]2 [EG]2 [DF]2 | [CE]4 ([EG]>[EG]) | %26
w: |||||
w: |||||
w: sing! Je- sus|con- quered the|grave, rob- bing|death of its|sting; Ho- *|
w: |||||
w: |||||
 [Ec]2 [Gc]2 [Gd]2 | [Ge]4 [Fd]>[Fc] | [Ec]2 [Ec]2 [FA]2 | [EG]6 | [FA]4 [FA]2 | [Ec]4 [Ec]2 | %32
w: ||||||
w: ||||||
w: san- na! a-|gain let the|glad an- them|ring,|“Sing and|pray! E-|
w: ||||||
w: ||||||
 [Fd]2 [Ec]2 [DB]2 | [Ec]4 |] %34
w: ||
w: ||
w: ter- ni- ty|dawns!”|
w: ||
w: ||
V:2
 G2 | G3 x3 | x6 | x2 E2 x2 | x4 G>G | G2 x4 | x6 | x6 | x4 G2 | G3 x3 | x6 | x2 E2 x2 | x4 G>G | %13
 G2 x4 | x6 | x6 | x4 || G>G | x2 (EF) x2 | x6 | x6 | x6 | x6 | x6 | x6 | x6 | x6 | x6 | x6 | x6 | %30
 x6 | x6 | x6 | x4 |] %34
V:3
 G,2 | [CE]3 C [G,D]2 | [C,C]4 [C,C]>[E,C] | [A,C]2 [A,C]2 [A,C]2 | [G,B,]4 [G,B,]>[G,B,] | %5
 [G,B,]2 [G,C]2 [G,D]2 | [A,C]4 A,>A, | [F,A,]2 G,2 G,2 | [C,G,]4 G,2 | [CE]3 C [G,D]2 | %10
 [C,C]4 [C,C]>[E,C] | [A,C]2 [A,C]2 [A,C]2 | [G,B,]4 [G,B,]>[G,B,] | [G,B,]2 [G,C]2 [G,D]2 | %14
 [A,C]4 A,>A, | [F,A,]2 G,2 G,2 | [C,G,]4 || G,>G, | [C,C]2 C2 [E,C]>[C,C] | %19
 [G,B,]2 ([G,B,][A,C]) [B,D]>[G,B,] | C2 [B,D]2 [A,D]2 | [G,B,]4 [G,B,]>[G,B,] | %22
 [A,C]2 [A,C]2 [A,C]2 | [F,C]4 [F,C]>[F,C] | [G,C]2 [G,C]2 G,2 | [C,G,]4 ([C,G,]>[C,G,]) | %26
 [C,G,]2 [E,C]2 [G,B,]2 | C4 C>C | C2 [C,C]2 [C,C]2 | [C,C]6 | [F,C]4 [F,A,]2 | [C,G,]4 A,2 | %32
 [F,A,]2 G,2 G,2 | [C,G,]4 |] %34
V:4
 G,2 | x3 C x2 | x6 | x6 | x6 | x6 | x4 A,>A, | x2 G,2 G,2 | x4 G,2 | x3 C x2 | x6 | x6 | x6 | x6 | %14
 x4 A,>A, | x2 G,2 G,2 | x4 || G,>G, | x2 (C,D,) x2 | x6 | C2 x4 | x6 | x6 | x6 | x4 G,2 | x6 | %26
 x6 | C4 C>C | C2 x4 | x6 | x6 | x4 A,2 | x2 G,2 G,2 | x4 |] %34

